suite-common/icons/assets/icons/cameraSlash.svg

<svg xmlns="http://www.w3.org/2000/svg" viewBox="0 0 32 32">
  <path fill-rule="evenodd" d="M5.623 4.074c-.254.113-.546.489-.586.755-.069.461.013.608.876 1.558l.545.6-.283.002c-1.356.008-2.534.784-2.976 1.958a3.7 3.7 0 0 0-.162.786c-.026.264-.048 3.696-.049 7.627l-.001 7.147.151.404c.342.915.955 1.541 1.869 1.907l.353.142 9.627.015 9.626.015.427.419c.591.582.791.667 1.256.538.343-.096.691-.576.691-.955 0-.358.2-.114-3.066-3.739C18.915 17.696 9.289 7.109 7.15 4.808c-.31-.333-.623-.636-.696-.674-.218-.111-.646-.143-.831-.06m6.457-.026c-.553.04-.681.105-.96.486-.468.637-.447 1.248.055 1.631.342.261 1.006.216 1.28-.087.092-.102.184-.105 3.544-.105h3.449l.833 1.246c.458.686.9 1.325.98 1.421.276.328.304.332 2.779.377 2.477.045 2.51.049 2.757.387.103.142.112.247.144 1.813.019.915.037 4.052.04 6.973l.006 5.309.157.248a1.01 1.01 0 0 0 1.714-.003l.159-.251L29 16.507c-.015-6.475-.023-7.01-.11-7.303a3 3 0 0 0-1.477-1.814c-.654-.343-.764-.358-2.942-.388l-1.956-.028-.625-.94c-.985-1.483-1.223-1.795-1.449-1.907-.19-.093-.414-.099-4.041-.107-2.112-.004-4.056.008-4.32.028m-2.392 6.499c.764.843 1.552 1.719 1.75 1.947l.362.413-.269.413c-1.056 1.621-1.288 3.215-.72 4.936.256.774.623 1.38 1.213 1.999 1.001 1.051 2.169 1.603 3.577 1.691 1.166.073 1.985-.1 3.042-.642l.556-.285.654.706c1.09 1.178 2.892 3.182 2.912 3.239.029.083-16.869.039-17.107-.044a1 1 0 0 1-.53-.467c-.081-.146-.088-.764-.084-7.498l.005-7.339.15-.197c.282-.369.389-.392 1.924-.4l1.176-.006zm5.855 6.437 2.275 2.504-.184.095c-.7.359-1.549.486-2.276.341a3.3 3.3 0 0 1-1.788-.958c-.769-.775-1.066-1.542-1.024-2.646.02-.529.047-.672.191-1.04.175-.445.413-.845.488-.816.023.009 1.067 1.143 2.318 2.52"/>
</svg>

<svg xmlns="http://www.w3.org/2000/svg" viewBox="0 0 32 32"><path d="M5.623 4.074 C 5.369 4.187,5.077 4.563,5.037 4.829 C 4.968 5.290,5.050 5.437,5.913 6.387 L 6.458 6.987 6.175 6.989 C 4.819 6.997,3.641 7.773,3.199 8.947 C 3.135 9.116,3.062 9.469,3.037 9.733 C 3.011 9.997,2.989 13.429,2.988 17.360 L 2.987 24.507 3.138 24.911 C 3.480 25.826,4.093 26.452,5.007 26.818 L 5.360 26.960 14.987 26.975 L 24.613 26.990 25.040 27.409 C 25.631 27.991,25.831 28.076,26.296 27.947 C 26.639 27.851,26.987 27.371,26.987 26.992 C 26.987 26.634,27.187 26.878,23.921 23.253 C 18.915 17.696,9.289 7.109,7.150 4.808 C 6.840 4.475,6.527 4.172,6.454 4.134 C 6.236 4.023,5.808 3.991,5.623 4.074 M12.080 4.048 C 11.527 4.088,11.399 4.153,11.120 4.534 C 10.652 5.171,10.673 5.782,11.175 6.165 C 11.517 6.426,12.181 6.381,12.455 6.078 C 12.547 5.976,12.639 5.973,15.999 5.973 L 19.448 5.973 20.281 7.219 C 20.739 7.905,21.181 8.544,21.261 8.640 C 21.537 8.968,21.565 8.972,24.040 9.017 C 26.517 9.062,26.550 9.066,26.797 9.404 C 26.900 9.546,26.909 9.651,26.941 11.217 C 26.960 12.132,26.978 15.269,26.981 18.190 L 26.987 23.499 27.144 23.747 C 27.545 24.380,28.456 24.378,28.858 23.744 L 29.017 23.493 29.000 16.507 C 28.985 10.032,28.977 9.497,28.890 9.204 C 28.657 8.416,28.125 7.763,27.413 7.390 C 26.759 7.047,26.649 7.032,24.471 7.002 L 22.515 6.974 21.890 6.034 C 20.905 4.551,20.667 4.239,20.441 4.127 C 20.251 4.034,20.027 4.028,16.400 4.020 C 14.288 4.016,12.344 4.028,12.080 4.048 M9.688 10.547 C 10.452 11.390,11.240 12.266,11.438 12.494 L 11.800 12.907 11.531 13.320 C 10.475 14.941,10.243 16.535,10.811 18.256 C 11.067 19.030,11.434 19.636,12.024 20.255 C 13.025 21.306,14.193 21.858,15.601 21.946 C 16.767 22.019,17.586 21.846,18.643 21.304 L 19.199 21.019 19.853 21.725 C 20.943 22.903,22.745 24.907,22.765 24.964 C 22.794 25.047,5.896 25.003,5.658 24.920 C 5.443 24.844,5.250 24.675,5.128 24.453 C 5.047 24.307,5.040 23.689,5.044 16.955 L 5.049 9.616 5.199 9.419 C 5.481 9.050,5.588 9.027,7.123 9.019 L 8.299 9.013 9.688 10.547 M15.543 16.984 L 17.818 19.488 17.634 19.583 C 16.934 19.942,16.085 20.069,15.358 19.924 C 14.637 19.780,14.084 19.483,13.570 18.966 C 12.801 18.191,12.504 17.424,12.546 16.320 C 12.566 15.791,12.593 15.648,12.737 15.280 C 12.912 14.835,13.150 14.435,13.225 14.464 C 13.248 14.473,14.292 15.607,15.543 16.984 " stroke="none" fill-rule="evenodd" fill="black"></path></svg>
